kora-light-panel/panel/16/update-none.svg

<svg xmlns="http://www.w3.org/2000/svg" width="16" height="16" version="1.1">
 <defs>
  <style id="current-color-scheme" type="text/css">
   .ColorScheme-Text { color:#444444; } .ColorScheme-Highlight { color:#4285f4; }
  </style>
 </defs>
 <path style="fill:currentColor;opacity:0.3" class="ColorScheme-Text" d="M 8 1 C 4.1339875 1 1 4.1339875 1 8 C 1 11.86575 4.1339875 15 8 15 C 11.86575 15 15 11.86575 15 8 C 15 4.1339875 11.86575 1 8 1 z M 8 3 C 9.1451686 3 10.289086 3.3937827 11.216797 4.1757812 C 10.971577 4.2919592 10.749281 4.4656429 10.576172 4.7128906 L 9.9257812 5.640625 L 9.890625 5.6914062 C 8.712269 4.7257947 6.9789107 4.7789018 5.8789062 5.8789062 C 5.2932283 6.4645844 5.0040145 7.232375 5.0039062 8 L 5.3007812 8 A 0.69921389 0.57389046 0 0 1 5.90625 8.8613281 L 5.2558594 9.7851562 L 4.6054688 10.712891 A 0.69921389 0.57389046 0 0 1 3.3945312 10.712891 L 2.7441406 9.7851562 L 2.09375 8.8613281 A 0.69921389 0.57389046 0 0 1 2.6992188 8 L 3.0019531 8 C 3.002159 6.7206583 3.4887389 5.4409485 4.4648438 4.4648438 C 5.4411544 3.488533 6.7203884 3 8 3 z M 11.962891 5 A 0.69921389 0.57389046 0 0 1 12.605469 5.2871094 L 13.255859 6.2148438 L 13.90625 7.1386719 A 0.69921389 0.57389046 0 0 1 13.300781 8 L 12.998047 8 C 12.997841 9.2793417 12.511261 10.559051 11.535156 11.535156 C 10.558846 12.511467 9.2796116 13 8 13 C 6.8556939 13 5.7124949 12.606993 4.7851562 11.826172 C 5.0259712 11.712142 5.2480622 11.538823 5.4238281 11.289062 L 5.4238281 11.287109 L 6.0742188 10.359375 L 6.109375 10.308594 C 7.287731 11.274205 9.0210885 11.221099 10.121094 10.121094 C 10.706772 9.5354149 10.995986 8.767625 10.996094 8 L 10.699219 8 A 0.69921389 0.57389046 0 0 1 10.09375 7.1386719 L 10.744141 6.2148438 L 11.394531 5.2871094 A 0.69921389 0.57389046 0 0 1 11.962891 5 z"/>
</svg>

<svg xmlns="http://www.w3.org/2000/svg" width="16" height="16" viewBox="0 0 16 16">
 <defs>
  <style id="current-color-scheme" type="text/css">
   .ColorScheme-Text { color:#444444; } .ColorScheme-Highlight { color:#4285f4; } .ColorScheme-NeutralText { color:#ff9800; } .ColorScheme-PositiveText { color:#4caf50; } .ColorScheme-NegativeText { color:#f44336; }
  </style>
 </defs> 
 <path style="opacity:0.3;fill:currentColor" class="ColorScheme-Text" d="m11.963 5c.262-.011.511.1.642.287l.651.928.65.924c.062.087.094.186.094.287 0 .315-.315.574-.699.574h-.303c0 1.279-.487 2.559-1.463 3.535s-2.255 1.465-3.535 1.465c-1.144 0-2.288-.393-3.215-1.174.241-.114.463-.287.639-.537v-.002l.685-.978c1.179.965 2.912.912 4.012-.188.586-.586.875-1.353.875-2.121h-.297c-.384 0-.699-.259-.699-.574 0-.101.032-.2.094-.287l.65-.924.651-.928c.117-.168.332-.276.568-.287zm-3.963-2c1.145 0 2.289.394 3.217 1.176-.245.116-.468.29-.641.537l-.685.978c-1.179-.965-2.912-.912-4.012.188-.586.586-.875 1.353-.875 2.121h.297c.384 0 .699.259.699.574 0 .101-.032.2-.094.287l-.65.924-.651.928c-.124.177-.356.287-.605.287s-.481-.11-.605-.287l-.651-.928-.65-.924c-.062-.087-.094-.186-.094-.287 0-.315.315-.574.699-.574h.303c0-1.279.487-2.559 1.463-3.535s2.255-1.465 3.535-1.465z"/>
</svg>
